X: 35541
T: Running The Cross
R: reel
M: 4/4
K: Eminor
|:EED E2 DEG|ABBA GEEB,|A,FF E2 DDE|GAAG ABBd|
EED E2 GAG|ABBA GEEG|ABBA BddB|1 Beed BAGF:|2 Beed BAAA||
|:eegf fede|beea {b} aged|eegf fedA|BBA B2 ddB|
eegf fede|beeg gfed|B2 BA BddB|1 Beed BAAA:|2 Beed BAGF||

